!!!!SEGMENT: pl-kk--kk-i-7--033-002_pekiel-bartlomiej--missa-et-in-terra.krn
!!!cenid: 16xx:824
!!!COM: Pękiel, Bartłomiej
!!!COM-rismid: pe30105642
!!!CDT: <1633-~1670
!!!CNT: Polish
!!!OPR: Missa
!!!OTL: Et in terra
!!!OMV: 002
!!!PDT: 1664
!!!AGN: Sacred; Mass
!!!SMS-siglum: PL-Kk
!!!SMS-shelfmark: Kk.I.7
!!!SMS-shelfwork: 033-002 M
!!!SMS-variant:
!!!SMS-altvar:
!!!NIFC-rismid: 300258110
!!!URL-scan: http://repozytorium.nifc.pl/skany/pl-kk-nut--i-7
!!!ONB-nifc: UWAGA: C (skan 0020-0021, s.35-37), A (0107-0108, s.34-36), T (0182, s.28-29), B (0273–274, s.35-37). Części Mszy: 1. Kyrie, 2. Et in terra, 3. Patrem, 4. Sanctus, 5. Agnus Dei
!!!key:
**kern	**text	**kern	**text	**kern	**text	**kern	**text
*part4	*part4	*part3	*part3	*part2	*part2	*part1	*part1
*staff4	*staff4	*staff3	*staff3	*staff2	*staff2	*staff1	*staff1
*Ibass	*	*Itenor	*	*Ialto	*	*Isoprn	*
*I"BASSVS.	*	*I"TENOR.	*	*I"ALTVS.	*	*I"CANTVS.	*
*I'B	*	*I'T	*	*I'A	*	*I'S	*
*clefF4	*	*clefC4	*	*clefC4	*	*clefC3	*
*k[]	*	*k[]	*	*k[]	*	*k[]	*
*G:	*	*G:	*	*G:	*	*G:	*
*M2/1	*	*M2/1	*	*M2/1	*	*M2/1	*
*met(C|)	*	*met(C|)	*	*met(C|)	*	*met(C|)	*
=1-	=1-	=1-	=1-	=1-	=1-	=1-	=1-
*all\right	*	*all\right	*	*all\right	*	*all\right	*
*2\right	*	*2\right	*	*2\right	*	*2\right	*
!	!	!LO:TX:a:t=2 ctus. S.B.P.	!	!	!	!	!
!LO:TX:t=P:problem=przed metrum inicjał E	!	!LO:TX:t=P:problem=przed metrum inicjał E	!	!LO:TX:t=P:problem=przed metrum inicjał E	!	!LO:TX:t=P:problem=przed metrum inicjał E	!
2.G\	ET	2.B\	ET	2.d\	ET	2.g\	ET
!	!	!LO:TX:t=P:problem=kreska pseudotaktowa	!	!LO:TX:t=P:problem=kreska pseudotaktowa	!	!LO:TX:t=P:problem=kreska pseudotaktowa	!
4G\	in	4B\	in	4d\	in	4g\	in
2A\	ter-	2A/	ter-	2c\	ter-	2e\	ter-
!LO:TX:t=P:problem=kreska pseudotaktowa	!	!LO:TX:t=P:problem=kreska pseudotaktowa	!	!	!	!	!
2F\	-ra	2A/	-ra	2d\	-ra	2d\	-ra
=2-	=2-	=2-	=2-	=2-	=2-	=2-	=2-
2E\	pax	1.G	pax	2B\	pax	1.e	pax
4C/	.	.	.	1c	.	.	.
!LO:TX:t=P:problem=kreska pseudotaktowa	!	!	!	!	!	!	!
4D/	.	.	.	.	.	.	.
4E\	.	.	.	.	.	.	.
4F\	.	.	.	.	.	.	.
1G	pax	1G,/	pax	4B\	pax	4d\	.
!	!	!	!	!LO:TX:t=P:problem=kreska pseudotaktowa	!	!LO:TX:t=P:problem=kreska pseudotaktowa	!
.	.	.	.	4A\	.	4c/	.
=3-	=3-	=3-	=3-	=3-	=3-	=3-	=3-
.	.	.	.	4B\	.	4d\	.
.	.	.	.	4c\	.	4e\	.
!LO:TX:t=P:problem=kreska pseudotaktowa	!	!LO:TX:t=P:problem=kreska pseudotaktowa	!	!	!	!	!
2F\	ho-	2A/	ho-	2.d\	Ho-	4.f\	.
!	!	!	!	!	!	!LO:TX:t=P:problem=kreska pseudotaktowa	!
.	.	.	.	.	.	8f\	ho-
2.A\	-mi-	2.A/	-mi-	.	.	2.e\	-mi-
!	!	!	!	!LO:TX:t=P:problem=♯above	!	!	!
.	.	.	.	8c#X\L	.	.	.
.	.	.	.	8B\J	.	.	.
.	.	.	.	4.c#\	-mi-	.	.
!	!	!LO:TX:t=P:problem=kreska pseudotaktowa	!	!	!	!	!
4AA/	-ni-	4A/	-ni-	.	.	4e\	-ni-
!	!	!	!	!LO:TX:t=P:problem=kreska pseudotaktowa	!	!	!
.	.	.	.	8c#\	-ni-	.	.
=4-	=4-	=4-	=4-	=4-	=4-	=4-	=4-
!	!	!	!	!	!	!LO:TX:t=P:problem=kreska pseudotaktowa	!
1D	-bus	2A/	-b(us)	1d	-bus	1f#X	-bus
.	.	2.d\	Bo-	.	.	.	.
2.G\	Bo-	.	.	1r	.	1r	.
.	.	4c\	.	.	.	.	.
.	.	(4B\	-nae	.	.	.	.
!	!	!LO:TX:t=P:problem=kreska pseudotaktowa	!	!	!	!	!
4F\	.	4A/)	.	.	.	.	.
=5-	=5-	=5-	=5-	=5-	=5-	=5-	=5-
4E\	-nae	1.G	Vo-	4g\	Bo-	2r	.
4D/	.	.	.	4f\	-nae	.	.
1C	Vo-	.	.	4e\	Vo-	4g\	Bo-
!	!	!	!	!LO:TX:t=P:problem=kreska pseudotaktowa	!	!LO:TX:t=P:problem=kreska pseudotaktowa	!
.	.	.	.	4d\	-lun-	4fny\	-nae
.	.	.	.	2cny\	-ta-	4e\	Vo-
.	.	.	.	.	.	4f\	-lun-
!	!	!LO:TX:t=P:problem=kreska pseudotaktowa	!	!	!	!	!
2BB/	-lun-	2B\	-lun-	2.d\	-tis	1g	-ta-
=6-	=6-	=6-	=6-	=6-	=6-	=6-	=6-
!LO:TX:t=P:problem=kreska pseudotaktowa	!	!LO:TX:t=P:problem=kreska pseudotaktowa	!	!	!	!	!
1D	-ta-	1A	-ta-	.	.	.	.
.	.	.	.	4A/	Lau-	.	.
!	!	!	!	!	!	!LO:TX:t=P:problem=kreska pseudotaktowa	!
!	!	!	!	!	!	!LO:SIC:v:t=custos g	!
.	.	.	.	4.d\	-da-	2f#X\	.
!	!	!	!	!LO:TX:t=P:problem=kreska pseudotaktowa	!	!	!
.	.	.	.	8c\	-mus	.	.
!	!	!	!	!	!	!LO:LB:g=original	!
4GG;,/	-tis	4G,/	-tis	4B\	te	8g\	-tis
.	.	.	.	.	.	8d\	Lau-
*	*	*	*	*	*ij	*	*
4GG/	Lau-	4B\	Lau-	4B\	Lau-	4.g\	-da-
4.C/	-da-	4.e\	-da-	4c\	-da-	.	.
.	.	.	.	.	.	8fny\	-mus
!	!	!	!	!LO:TX:t=P:problem=kreska pseudotaktowa	!	!	!
.	.	.	.	4G/	-mus	2e\	te
!LO:TX:t=P:problem=kreska pseudotaktowa	!	!LO:TX:t=P:problem=kreska pseudotaktowa	!	!	!	!	!
8BB/	-mus	8d\	-m(us)	.	.	.	.
=7-	=7-	=7-	=7-	=7-	=7-	=7-	=7-
4AA/	te	4c\	te	4A/	te	.	.
*	*	*	*	*	*Xij	*	*
2A\	Be-	8.c\	Be-	8.A/	Be-	2e\	Be-
!	!	!	!	!LO:SIC:v:t=custos E	!	!	!
.	.	16c\	-ne-	16A/	-ne-	.	.
!	!	!	!	!LO:LB:g=original	!	!	!
.	.	4B\	-di-	4E/	-di-	.	.
!LO:TX:t=P:problem=♯above	!	!	!	!	!	!LO:TX:t=P:problem=kreska pseudotaktowa	!
4G#X\	-ne-	8B\	-ci-	8E/	-ci-	4e\	-ne-
!	!	!LO:TX:t=P:problem=kreska pseudotaktowa	!	!	!	!	!
!	!	!LO:SIC:v:t=custos A	!	!LO:TX:t=P:problem=kreska pseudotaktowa	!	!	!
.	.	8B\	-m(us)	8E/	-mus	.	.
!	!	!LO:LB:g=original	!	!	!	!	!
4A\	-di-	4A/	te	4c\	te	4.e\	-di-
*	*	*	*	*	*ij	*	*
4AA/	-ci-	2A/	A-	8.c\	Be-	.	.
.	.	.	.	.	.	8e\	-ci-
.	.	.	.	16c\	-ne-	.	.
!LO:TX:t=P:problem=kreska pseudotaktowa	!	!	!	!	!	!	!
!LO:SIC:v:t=custos AA	!	!	!	!	!	!LO:TX:t=P:problem=kreska pseudotaktowa	!
2E\	-mus	.	.	4B\	-di-	2e\	-mus
!	!	!LO:TX:t=P:problem=kreska pseudotaktowa	!	!	!	!	!
.	.	4G#X/	-do-	8B\	-ci-	.	.
!	!	!	!	!LO:TX:t=P:problem=kreska pseudotaktowa	!	!	!
.	.	.	.	8B\	-mus	.	.
!LO:PB:g=original	!	!	!	!	!	!	!
=8-	=8-	=8-	=8-	=8-	=8-	=8-	=8-
4AA,/	te	8A/L	-ra-	4A/	te	4e,\	te
*	*	*	*	*	*Xij	*	*
.	.	8B/J	.	.	.	.	.
8.A\	A-	2c\	.	8A/	A-	8.e\	A-
.	.	.	.	8e\	-do-	.	.
16Gny\	-do-	.	.	.	.	16e\	-do-
4F\	-ra-	.	.	4A/	-ra-	4f\	-ra-
!LO:TX:t=P:problem=kreska pseudotaktowa	!	!LO:TX:t=P:problem=kreska pseudotaktowa	!	!LO:TX:t=P:problem=kreska pseudotaktowa	!	!LO:TX:t=P:problem=kreska pseudotaktowa	!
4G\	-mus	4B\	-mus	4B\	-mus	4d\	-m(us)
4C,/	te	2c\	te	4G/	te	4e\	te
4c\	Glo-	.	.	2e\	Glo-	4g\	Glo-
!	!	!LO:TX:t=P:problem=kreska pseudotaktowa	!	!	!	!	!
4A\	-ri-	2r	.	.	.	4.f\	-ri-
!LO:TX:t=P:problem=kreska pseudotaktowa	!	!	!	!	!	!	!
4B\	-fi-	.	.	2d\	-ri-	.	.
!	!	!	!	!	!	!LO:TX:t=P:problem=kreska pseudotaktowa	!
.	.	.	.	.	.	8f\	-fi-
=9-	=9-	=9-	=9-	=9-	=9-	=9-	=9-
8c\L	-ca-	4r	.	.	.	4.e\	-ca-
8B\	.	.	.	.	.	.	.
8A\	.	4c\	glo-	4c\	-fi-	.	.
8G\J	.	.	.	.	.	16f\LL	.
.	.	.	.	.	.	16g\JJ	.
4F\	.	4c\	-ri-	4.d\	-ca-	4a\	.
!LO:TX:t=P:problem=kreska pseudotaktowa	!	!LO:TX:t=P:problem=kreska pseudotaktowa	!	!	!	!LO:TX:t=P:problem=kreska pseudotaktowa	!
4G\	-mus	4B\	-fi-	.	.	4g\	-mus
!	!	!	!	!LO:TX:t=P:problem=kreska pseudotaktowa	!	!	!
.	.	.	.	8d\	-mus	.	.
4C,/	te	8c\L	-ca-	4e,\	te	4g\	te
.	.	8B\	.	.	.	.	.
*	*	*	*	*	*ij	*	*
4c\	Glo-	8A\	.	4e\	Glo-	4a\	glo-
.	.	8Gny\J	.	.	.	.	.
4c\	-ri-	4F/	.	4.d\	-ri-	4a\	-ri-
!LO:TX:t=P:problem=kreska pseudotaktowa	!	!LO:TX:t=P:problem=kreska pseudotaktowa	!	!	!	!LO:TX:t=P:problem=kreska pseudotaktowa	!
4B\	-fi-	4G/	-mus	.	.	4g\	-fi-
!	!	!	!	!LO:TX:t=P:problem=kreska pseudotaktowa	!	!	!
.	.	.	.	8d\	-fi-	.	.
=10-	=10-	=10-	=10-	=10-	=10-	=10-	=10-
4c\	-ca-	4C/	te	4e\	-ca-	4g\	-ca-
*	*	*	*ij	*	*	*	*
8F\L	.	4c\	glo-	2f\	.	2a\	.
8E\J	.	.	.	.	.	.	.
4D/	.	4.B\	-ri-	.	.	.	.
!LO:TX:t=P:problem=kreska pseudotaktowa	!	!	!	!	!	!	!
4E\	-mus	.	.	2e\	.	2g\	-mus-
!	!	!LO:TX:t=P:problem=kreska pseudotaktowa	!	!	!	!	!
.	.	8B\	-fi-	.	.	.	.
4C/	.	4.A/	-ca-	.	.	.	.
!	!	!	!	!	!	!LO:TX:t=P:problem=♯above	!
4D/	.	.	.	4d\	-mus	4f#X\	.
.	.	8A/	-mus	.	.	.	.
!	!	!	!	!	!	!LO:TX:t=P:problem=kreska pseudotaktowa	!
!	!	!LO:TX:t=P:problem=kreska pseudotaktowa	!	!LO:TX:t=P:problem=kreska pseudotaktowa	!	!LO:SIC:v:t=custos g	!
2GG/	te	2B\	te	2d\	te	2g\	-Te.
*	*	*	*Xij	*	*Xij	*	*
!	!	!	!	!	!	!LO:LB:g=original	!
=11-	=11-	=11-	=11-	=11-	=11-	=11-	=11-
*M3/1	*	*M3/1	*	*M3/1	*	*M3/1	*
!	!	!	!	!LO:TX:t=P:problem=metrum kółko z kropką i 3/1	!	!LO:TX:t=P:problem=metrum kółko z kropką i 3/1	!
1.G	Gra-	1.B	Gra-	1.d	Gra-	1.g	Gra-
2G\	-ti-	2B\	-ti-	2d\	-ti-	2g\	-ti-
!LO:TX:t=P:problem=kreska pseudotaktowa	!	!LO:TX:t=P:problem=kreska pseudotaktowa	!	!LO:TX:t=P:problem=kreska pseudotaktowa	!	!LO:TX:t=P:problem=kreska pseudotaktowa	!
!LO:SIC:v:t=custos C	!	!	!	!	!	!	!
1G	-as	1B	-as	1d	-as	1g	-as
!LO:LB:g=original	!	!	!	!	!	!	!
=12-	=12-	=12-	=12-	=12-	=12-	=12-	=12-
*	*	*	*	*	*ij	*	*
1.C	gra-	1.c	gra-	1.e	Gra-	1.g	a-
2C/	-ti-	2c\	-ti-	2e\	-ti-	2g\	-gi-
!	!	!	!	!LO:TX:t=P:problem=kreska pseudotaktowa	!	!	!
!LO:TX:t=P:problem=kreska pseudotaktowa	!	!LO:TX:t=P:problem=kreska pseudotaktowa	!	!LO:SIC:v:t=custos e	!	!LO:TX:t=P:problem=kreska pseudotaktowa	!
1C	-as	1c	-as	1e	-as	1g	-mus
*	*	*	*	*	*Xij	*	*
!	!	!	!	!LO:PB:g=original	!	!	!
=13-	=13-	=13-	=13-	=13-	=13-	=13-	=13-
1.AA	a-	1.c	a-	1.e	a-	1.a	gra-
!LO:TX:b:t=P:problem=# below	!	!	!	!	!	!	!
2GG#X/	-gi-	2B\	-gi-	2e\	-gi-	2b\	-ti-
!LO:TX:t=P:problem=kreska pseudotaktowa	!	!LO:TX:t=P:problem=kreska pseudotaktowa	!	!	!	!	!
!	!	!LO:SIC:v:t=custos G	!	!LO:TX:t=P:problem=kreska pseudotaktowa	!	!LO:TX:t=P:problem=kreska pseudotaktowa	!
1AA	-mus	1A	-mus	1c	-mus	1e	-as
!	!	!LO:LB:g=original	!	!	!	!	!
=14-	=14-	=14-	=14-	=14-	=14-	=14-	=14-
0E	ti-	0G#X	ti-	0B	ti-	0e	ti-
!LO:TX:t=P:problem=kreska pseudotaktowa	!	!LO:TX:t=P:problem=kreska pseudotaktowa	!	!	!	!LO:TX:t=P:problem=kreska pseudotaktowa	!
1E	-bi	1G#	-bi	1B,	-bi	1e	-bi
=15-	=15-	=15-	=15-	=15-	=15-	=15-	=15-
*	*	*	*ij	*	*	*	*
1.C	gra-	1.c	Gra-	1.e	Gra-	1.g	gra-
2C/	-ti-	2c\	-ti-	2e\	-ti-	2g\	-ti-
!LO:TX:t=P:problem=kreska pseudotaktowa	!	!LO:TX:t=P:problem=kreska pseudotaktowa	!	!LO:TX:t=P:problem=kreska pseudotaktowa	!	!LO:TX:t=P:problem=kreska pseudotaktowa	!
1C	-as	1c	-as	1e	-as	1g	-as
=16-	=16-	=16-	=16-	=16-	=16-	=16-	=16-
1.F	gra-	1.c	gra-	1.f	gra-	1.a	gra-
2F\	-ti-	2c\	-ti-	2f\	-ti-	2a\	-ti-
!LO:TX:t=P:problem=kreska pseudotaktowa	!	!LO:TX:t=P:problem=kreska pseudotaktowa	!	!	!	!LO:TX:t=P:problem=kreska pseudotaktowa	!
1F	-(as)	1c	-as	1f	-as	1a	-as
=17-	=17-	=17-	=17-	=17-	=17-	=17-	=17-
1.C	a-	1.c	a-	1.e	a-	1.g	a-
2BB/	-gi-	2d\	-gi-	2d\	-gi-	2g\	-gi-
!LO:TX:t=P:problem=kreska pseudotaktowa	!	!LO:TX:t=P:problem=kreska pseudotaktowa	!	!	!	!LO:TX:t=P:problem=kreska pseudotaktowa	!
1C	-mus	1c	-mus	1e	-mus	1g	-mus
=18-	=18-	=18-	=18-	=18-	=18-	=18-	=18-
0GGny	ti-	0B	ti-	0d	ti-	0g	ti-
!LO:TX:t=P:problem=kreska pseudotaktowa	!	!LO:TX:t=P:problem=kreska pseudotaktowa	!	!LO:TX:t=P:problem=kreska pseudotaktowa	!	!LO:TX:t=P:problem=kreska pseudotaktowa	!
1GG	-bi	1B	-bi	1d	-bi	1g	-bi
*	*	*	*Xij	*	*	*	*
=19-	=19-	=19-	=19-	=19-	=19-	=19-	=19-
!LO:N:vis=0	!	!	!	!	!	!	!
0.r	.	(<1.B	pro-	1%3r	.	0g	pro-
.	.	2A/)	.	.	.	.	.
!	!	!	!	!	!	!LO:TX:t=P:problem=kreska pseudotaktowa	!
.	.	(2B\	-pter	.	.	1d	-pter
!	!	!LO:TX:t=P:problem=kreska pseudotaktowa	!	!	!	!	!
.	.	2c\)	.	.	.	.	.
=20-	=20-	=20-	=20-	=20-	=20-	=20-	=20-
!	!	!	!	!	!	!LO:TX:t=P:problem=kreska pseudotaktowa	!
(1.D	pro-	0d	ma-	0d	pro-	0.fny	ma-
2E\)	.	.	.	.	.	.	.
!	!	!LO:TX:t=P:problem=kreska pseudotaktowa	!	!	!	!	!
(2F\	-pter	1d	-gnam	1A	-pter	.	.
!LO:TX:t=P:problem=kreska pseudotaktowa	!	!	!	!	!	!	!
2G\)	.	.	.	.	.	.	.
=21-	=21-	=21-	=21-	=21-	=21-	=21-	=21-
0.A	ma-	1rA	.	0.c	ma-	1e	-gn(am)
.	.	(2A/	pro-	.	.	1a	p(ro)-
.	.	2B\)	.	.	.	.	.
.	.	(2c\	-pter	.	.	1e	-pt(er)
!	!	!LO:TX:t=P:problem=kreska pseudotaktowa	!	!	!	!	!
.	.	2d\)	.	.	.	.	.
=22-	=22-	=22-	=22-	=22-	=22-	=22-	=22-
!LO:TX:t=P:problem=kreska pseudotaktowa	!	!	!	!	!	!	!
!LO:SIC:v:t=custos D	!	!	!	!LO:TX:t=P:problem=kreska pseudotaktowa	!	!	!
0.E	-gnam	1.e	ma-	0.B	-gnam	0g	ma-
.	.	4d\	.	.	.	.	.
.	.	4c\	.	.	.	.	.
!	!	!	!	!	!	!LO:TX:t=P:problem=kreska pseudotaktowa	!
!	!	!	!	!	!	!LO:SIC:v:t=custos f	!
.	.	2B\	.	.	.	1g	-gn(am)
!	!	!LO:TX:t=P:problem=kreska pseudotaktowa	!	!	!	!	!
.	.	2c\	.	.	.	.	.
!LO:LB:g=original	!	!	!	!	!	!LO:PB:g=original	!
=23-	=23-	=23-	=23-	=23-	=23-	=23-	=23-
1.D	pro-	0d,	-gnam	1.d	glo-	1.f	glo-
2E\	-pter	.	.	4c\	.	2f\	-ri-
.	.	.	.	4B\	.	.	.
!	!	!LO:TX:t=P:problem=kreska pseudotaktowa	!	!	!	!	!
!	!	!LO:SIC:v:t=custos c	!	!	!	!LO:TX:t=P:problem=kreska pseudotaktowa	!
2F\	ma-	1d	glo-	2A/	.	1f	-am
!LO:TX:t=P:problem=kreska pseudotaktowa	!	!	!	!LO:TX:t=P:problem=kreska pseudotaktowa	!	!	!
2D/	-gnam	.	.	2B\	.	.	.
!	!	!LO:LB:g=original	!	!	!	!	!
=24-	=24-	=24-	=24-	=24-	=24-	=24-	=24-
*	*	*col	*	*	*	*	*
1.A	glo-	0c	-ri-	1.c	-ri-	1.e	glo-
2A\	-ri-	.	.	2d\	.	2f\	-ri-
!LO:TX:t=P:problem=kreska pseudotaktowa	!	!	!	!	!	!LO:TX:t=P:problem=kreska pseudotaktowa	!
1E	-(am)	0c	-am	1e	-am	1g	-am
=25-	=25-	=25-	=25-	=25-	=25-	=25-	=25-
*col	*	*	*	*	*	*col	*
1F	tu-	.	.	0.d	tu-	1a	tu-
0G	.	0B	tu-	.	.	0g	.
*Xcol	*	*Xcol	*	*	*	*Xcol	*
=26-	=26-	=26-	=26-	=26-	=26-	=26-	=26-
!	!	!	!	!LO:SIC:v:t=custos d	!	!	!
0.C	-am	0.c	-am.	0.e	-am	0.g	-am
!	!	!	!	!LO:LB:g=original	!	!	!
=27-	=27-	=27-	=27-	=27-	=27-	=27-	=27-
*M2/1	*	*M2/1	*	*M2/1	*	*M2/1	*
*met(C|)	*	*met(C|)	*	*met(C|)	*	*met(C|)	*
!	!	!	!	!	!	!LO:TX:t=P:problem=kreska pseudotaktowa	!
2r	.	4c\	Do-	0r	.	1r	.
.	.	8c\	-mi-	.	.	.	.
.	.	8c\	-ne	.	.	.	.
4G\	Do-	8B\	De-	.	.	.	.
.	.	8A/	-us	.	.	.	.
8G\	-mi-	8B\	Rex	.	.	.	.
!LO:TX:t=P:problem=kreska pseudotaktowa	!	!LO:TX:t=P:problem=kreska pseudotaktowa	!	!	!	!	!
8G\	-ne	8Gny/	cae-	.	.	.	.
8F#X\	De-	4A/	-le-	.	.	2r	.
8E\	-us	.	.	.	.	.	.
8F#\	Rex	2d\	.	.	.	.	.
8D\	cae-	.	.	.	.	.	.
!LO:TX:t=P:problem=kreska pseudotaktowa	!	!	!	!	!	!	!
2E\	-le-	.	.	.	.	4g\	Do-
!	!	!LO:TX:t=P:problem=♯above	!	!	!	!	!
.	.	4c#X\	.	.	.	8g\	-mi-
!	!	!	!	!	!	!LO:TX:t=P:problem=kreska pseudotaktowa	!
.	.	.	.	.	.	8g\	-ne
=28-	=28-	=28-	=28-	=28-	=28-	=28-	=28-
2D/	-ſtis	2d\	-ſtis	4d\	Do-	8f\	De-
.	.	.	.	.	.	8e\	-us
.	.	.	.	8d\	-mi-	8f\	Rex
.	.	.	.	8d\	-ne	8d\	cae-
!LO:TX:t=P:problem=kreska pseudotaktowa	!	!LO:TX:t=P:problem=kreska pseudotaktowa	!	!	!	!	!
2rC	.	2rd	.	8c\	De-	8e\L	-le-
.	.	.	.	8B\	-us	16f\L	.
.	.	.	.	.	.	16g\JJ	.
.	.	.	.	8c\	Rex	2a\	.
!	!	!	!	!LO:TX:t=P:problem=kreska pseudotaktowa	!	!	!
.	.	.	.	8A/	cae-	.	.
*	*	*	*ij	*	*	*	*
2rG	.	4d\	Do-	2B\	-le-	.	.
!	!	!	!	!	!	!LO:TX:t=P:problem=♯above	!
.	.	8d\	-mi-	.	.	4g#X\	.
.	.	8d\	-ne	.	.	.	.
*	*ij	*	*	*	*	*	*
!	!	!	!	!LO:TX:t=P:problem=kreska pseudotaktowa	!	!LO:TX:t=P:problem=kreska pseudotaktowa	!
4A\	Do-	8cny\	De-	2A/	-ſtis	2a\	-stis
.	.	8B\	-us	.	.	.	.
8A\	-mi-	8c\	Rex	.	.	.	.
!LO:TX:t=P:problem=kreska pseudotaktowa	!	!LO:TX:t=P:problem=kreska pseudotaktowa	!	!	!	!	!
8A\	-ne	8A/	cae-	.	.	.	.
=29-	=29-	=29-	=29-	=29-	=29-	=29-	=29-
8G\	De-	4B\	-le-	1r	.	2r	.
8Fny\	-us	.	.	.	.	.	.
8G\	Rex	2e\	.	.	.	.	.
8E\	cae-	.	.	.	.	.	.
*	*	*	*	*	*	*	*ij
!LO:TX:t=P:problem=kreska pseudotaktowa	!	!	!	!	!	!	!
2F\	-le-	.	.	.	.	4a\	Do-
.	.	4d\	.	.	.	8a\	-mi-
!	!	!	!	!	!	!LO:TX:t=P:problem=kreska pseudotaktowa	!
.	.	.	.	.	.	8a\	-ne
!LO:SIC:v:t=custos c	!	!	!	!	!	!	!
2E\	-ſtis	2e\	-ſtis	4e\	Do-	8gny\	De-
.	.	.	.	.	.	8f\	-us
.	.	.	.	8e\	-mi-	8g\	Rex
.	.	.	.	8e\	-ne	8e\	cae-
!LO:LB:g=original	!	!	!	!	!	!LO:TX:t=P:problem=kreska pseudotaktowa	!
!LO:TX:t=P:problem=kreska pseudotaktowa	!	!LO:TX:t=P:problem=kreska pseudotaktowa	!	!	!	!LO:SIC:v:t=custos e	!
2rC	.	2rd	.	8d\	De-	2f\	-le-
.	.	.	.	8c\	-(us)	.	.
.	.	.	.	8d\	Rex	.	.
!	!	!	!	!LO:TX:t=P:problem=kreska pseudotaktowa	!	!	!
.	.	.	.	8B\	cae-	.	.
!	!	!	!	!	!	!LO:LB:g=original	!
=30-	=30-	=30-	=30-	=30-	=30-	=30-	=30-
4c\	Do-	1r	.	4c\	-le-	4e\	-stis
*	*	*	*	*	*	*	*Xij
8c\	-mi-	.	.	4C/	.	8e\	Rex
8c\	-ne	.	.	.	.	8f\	cae-
!	!	!	!	!LO:TX:t=P:problem=kreska pseudotaktowa	!	!LO:TX:t=P::problem=kreska pseudotaktowa&colon;między nutą a kropką	!
8B\	De-	.	.	2G/	-stis	2.g\	-le-
8A\	-us	.	.	.	.	.	.
8B\	Rex	.	.	.	.	.	.
!LO:TX:t=P:problem=kreska pseudotaktowa	!	!	!	!	!	!	!
8G\	cae-	.	.	.	.	.	.
2A\	-le-	4c\	Do-	1r	.	.	.
!	!	!	!	!	!	!LO:TX:t=P:problem=♯above	!
.	.	8c\	-mi-	.	.	4f#X\	.
.	.	8c\	-ne	.	.	.	.
!LO:TX:t=P:problem=kreska pseudotaktowa	!	!	!	!	!	!	!
2G\	-ſtis	8B/	De-	.	.	4g\	-stis
*	*Xij	*	*	*	*	*	*
.	.	8A/	-us	.	.	.	.
.	.	8B/	Rex	.	.	8g\	Rex
!	!	!LO:TX:t=P:problem=kreska pseudotaktowa	!	!	!	!	!
!	!	!LO:SIC:v:t=custos A	!	!	!	!LO:TX:t=P:problem=kreska pseudotaktowa	!
.	.	8G/	cae-	.	.	8g\	cae-
!	!	!LO:LB:g=original	!	!	!	!	!
=31-	=31-	=31-	=31-	=31-	=31-	=31-	=31-
!	!	!	!	!	!	!LO:TX:t=P:problem=♯above	!
4D/	Rex	1A	-le-	2r	.	8f#X\L	-le-
.	.	.	.	.	.	8d\J	.
4C/	cae-	.	.	.	.	2g\	.
!LO:TX:t=P:problem=kreska pseudotaktowa	!	!	!	!LO:TX:t=P::problem=kreska pseudotaktowa&colon;między nutą a kropką	!	!	!
2D/	-le-	.	.	2.d\	De-	.	.
!	!	!	!	!	!	!LO:TX:t=P:problem=kreska pseudotaktowa	!
.	.	.	.	.	.	4f#\	.
4GG/	-stis	4B,/	-ſtis	.	.	2g\	-ſtis
*	*	*	*Xij	*	*	*	*
2G\	De-	2B/	De-	4B\	-us	.	.
!	!	!	!	!	!	!LO:TX:t=P:problem=kreska pseudotaktowa	!
.	.	.	.	4.e\	Pa-	2g\	De-
!LO:TX:t=P:problem=kreska pseudotaktowa	!	!	!	!	!	!	!
4E\	-us	4G/	-us	.	.	.	.
!	!	!	!	!LO:TX:t=P:problem=kreska pseudotaktowa	!	!	!
.	.	.	.	8d\	.	.	.
=32-	=32-	=32-	=32-	=32-	=32-	=32-	=32-
4.A\	Pa-	4.c\	Pa-	8c\L	.	4e\	-us
.	.	.	.	8B\J	.	.	.
.	.	.	.	2A/	-ter	4.a\	Pa-
8G\	.	8B\	.	.	.	.	.
!	!	!LO:TX:t=P:problem=kreska pseudotaktowa	!	!	!	!	!
8F\L	.	2A/	.	.	.	.	.
8E\J	.	.	.	.	.	8g\L	.
2D/	.	.	.	2f\	om-	8fny\	.
!	!	!	!	!	!	!LO:TX:t=P:problem=kreska pseudotaktowa	!
.	.	.	.	.	.	8e\J	.
.	.	4.A/	-ter	.	.	4d\	.
8C/	-ter	.	.	4e\	.	8a\	-ter
8C/	om-	8A/	om-	.	.	8a\	om-
4.BB/	-ni-	4.B/	-ni-	4.d\	-ni-	4.a\	-ni-
!LO:TX:t=P:problem=kreska pseudotaktowa	!	!LO:TX:t=P:problem=kreska pseudotaktowa	!	!LO:TX:t=P:problem=kreska pseudotaktowa	!	!LO:TX:t=P:problem=kreska pseudotaktowa	!
!	!	!	!	!	!	!LO:TX:b:t=P:#below:problem	!
8BB/	-po-	8B/	-po-	8d\	-po-	8g#\	-po-
=33-	=33-	=33-	=33-	=33-	=33-	=33-	=33-
!!	!	!	!	!	!	!	!
2AA/	-tens	4E,/	-tens	2c\	-tens	2a\	-tens
.	.	4.A/	Do-	.	.	.	.
!LO:TX:t=P:problem=kreska pseudotaktowa	!	!	!	!LO:TX:t=P:problem=kreska pseudotaktowa	!	!	!
2rAA	.	.	.	2r	.	4r	.
.	.	8A/	-mi-	.	.	.	.
!	!	!LO:TX:t=P:problem=kreska pseudotaktowa	!	!	!	!LO:TX:t=P::problem=kreska pseudotaktowa&colon;między nutą a kropką	!
.	.	4G#X/	-ne	.	.	4.e\	Do-
!LO:TX:a:t=2	!	!	!	!	!	!	!
0rC	.	4A/	Fi-	00r	.	.	.
.	.	.	.	.	.	8e\	-mi-
.	.	4B\	-li	.	.	4d\	-ne
.	.	4c\	V-	.	.	4e\	Fi-
!	!	!LO:TX:t=P:problem=kreska pseudotaktowa	!	!	!	!LO:TX:t=P:problem=kreska pseudotaktowa	!
!	!	!	!	!	!	!LO:TX:a:t=P:#above:problem	!
.	.	4A/	-ni-	.	.	4f#X\	-li
=34-	=34-	=34-	=34-	=34-	=34-	=34-	=34-
.	.	4B\	-ge-	.	.	4gny\	V-
.	.	4c\	.	.	.	4e\	-ni-
!	!	!	!	!	!	!LO:TX:a:t=P:#above:problem	!
.	.	4.d\	.	.	.	8f#X\L	-ge-
.	.	.	.	.	.	8g\J	.
.	.	.	.	.	.	2a\	.
!	!	!LO:TX:t=P:problem=kreska pseudotaktowa	!	!	!	!	!
.	.	8c\	.	.	.	.	.
2r	.	2B\	.	.	.	.	.
!	!	!	!	!	!	!LO:SIC:v:t=custos a	!
.	.	.	.	.	.	4g\	-ni-
!	!	!	!	!	!	!LO:LB:g=original	!
!	!	!	!	!	!	!LO:TX:t=P:problem=kreska pseudotaktowa	!
8AA/L	Je-	4.c\	.	.	.	2a\	-te
8BB/	.	.	.	.	.	.	.
8C/	.	.	.	.	.	.	.
!LO:TX:t=P:problem=kreska pseudotaktowa	!	!LO:TX:t=P:problem=kreska pseudotaktowa	!	!	!	!	!
8D/J	.	8c\	-ni-	.	.	.	.
=35-	=35-	=35-	=35-	=35-	=35-	=35-	=35-
8E\L	.	4B\	-te	.	.	4r	.
!LO:TX:t=P:problem=♯above	!	!	!	!	!	!	!
8F#X\	.	.	.	.	.	.	.
8G\	.	2e\	Je-	.	.	2g\	Je-
8A\J	.	.	.	.	.	.	.
4.B\	.	.	.	.	.	.	.
!	!	!	!	!	!	!LO:TX:t=P:problem=kreska pseudotaktowa	!
!	!	!	!	!	!	!LO:TX:t=P:problem=♯above	!
.	.	4d#X\	-ſu	.	.	4f#X\	-su
!LO:TX:t=P:problem=kreska pseudotaktowa	!	!	!	!	!	!	!
!LO:SIC:v:t=custos G	!	!	!	!	!	!	!
8A\	.	.	.	.	.	.	.
!LO:LB:g=original	!	!	!	!	!	!	!
4G\	.	4B\	Chri-	0r	.	4e\	Je-
!	!	!	!	!	!	!LO:TX:t=P:problem=♯above	!
4F#X\	.	4A/	-ſte	.	.	4f#X\	.
4E\	.	4.B\	Je-	.	.	4g\	-su
!LO:TX:t=P:problem=kreska pseudotaktowa	!	!	!	!	!	!LO:TX:t=P:problem=♯above	!
4D#X/	.	.	.	.	.	2f#X\	Chri-
!	!	!LO:TX:t=P:problem=kreska pseudotaktowa	!	!	!	!	!
.	.	8A/	.	.	.	.	.
=36-	=36-	=36-	=36-	=36-	=36-	=36-	=36-
(8E/L	.	4Gny/	.	.	.	.	.
8Dny/J)	.	.	.	.	.	.	.
(8C/L	-ſu	4G/	-ſu	.	.	2e\	.
8BB/J)	.	.	.	.	.	.	.
4AA/	Chri-	2F#X/	Chri-	.	.	.	.
!	!	!	!	!	!	!LO:TX:t=P:problem=kreska pseudotaktowa	!
!LO:TX:t=P:problem=kreska pseudotaktowa	!	!	!	!	!	!LO:TX:t=P:problem=♯above	!
4BB/	.	.	.	.	.	4d#X\	.
!	!	!LO:TX:t=P:problem=♯above	!	!	!	!	!
!	!	!LO:SIC:v:t=custos A	!	!	!	!	!
2E,\	-ſte	1G#X	-ſte	4.B\	Do-	2e\	-ſte
!	!	!	!	!LO:SIC:v:t=custos E	!	!	!
.	.	.	.	8B\	-mi-	.	.
!	!	!	!	!LO:LB:g=original	!	!LO:TX:t=P:problem=kreska pseudotaktowa	!
4.E\	Do-	.	.	4E/	-ne	2r	.
!	!	!	!	!LO:TX:t=P::problem=kreska pseudotaktowa&colon;między nutą a kropką	!	!	!
.	.	.	.	4.e\	De-	.	.
!LO:TX:t=P:problem=kreska pseudotaktowa	!	!	!	!	!	!	!
8E\	-mi-	.	.	.	.	.	.
!	!	!LO:LB:g=original	!	!	!	!	!
=37-	=37-	=37-	=37-	=37-	=37-	=37-	=37-
4AA/	-ne	2r	.	.	.	4.e\	Do-
.	.	.	.	8d\J	.	.	.
4.A\	De-	.	.	4.c\	.	.	.
.	.	.	.	.	.	8e\	-mi-
.	.	4r	.	.	.	4A/	-ne
8G\L	.	.	.	8B\	.	.	.
!	!	!	!	!	!	!LO:TX:t=P::problem=kreska pseudotaktowa&colon;między nytą a kropką	!
8Fny\	.	4.A/	Do-	2A/	.	4.a\	De-
!LO:TX:t=P:problem=kreska pseudotaktowa	!	!	!	!	!	!	!
8E\J	.	.	.	.	.	.	.
2.D/	.	.	.	.	.	.	.
.	.	8A/	-mi-	.	.	8g\L	.
.	.	4D/	-ne	4A/	-us	8fny\	.
.	.	.	.	.	.	8e\J	.
.	.	4dny\	De-	4f\	A-	4f\	.
!LO:TX:t=P:problem=kreska pseudotaktowa	!	!LO:TX:t=P:problem=kreska pseudotaktowa	!	!LO:TX:t=P:problem=kreska pseudotaktowa	!	!LO:TX:t=P:problem=kreska pseudotaktowa	!
!LO:TX:b:t=P:#below:problem	!	!	!	!	!	!	!
4C#X/	-us	4e\	-us	4e\	-gnus	4a\	-us
=38-	=38-	=38-	=38-	=38-	=38-	=38-	=38-
4D/	a-	4f\	A-	8d\L	De-	4a\	a-
.	.	.	.	8A\J	.	.	.
4E\	-gnus	4e\	-gn(us)	2c\	.	4g\	-gnus
(4F\	De-	2d\	De-	.	.	(4a\	De-
!LO:TX:t=P:problem=kreska pseudotaktowa	!	!	!	!LO:TX:t=P:problem=kreska pseudotaktowa	!	!LO:TX:t=P:problem=kreska pseudotaktowa	!
4G\)	.	.	.	4B\	.	4g\)	.
4Cny/	-i	4e\	-i	4c\	-i	2g\	-i
4.C/	Fi-	4.e\	Fi-	4.c\	Fi-	.	.
.	.	.	.	.	.	2.g\	Fi-
8C/	-li-	8e\	-li-	8c\	-li-	.	.
!	!	!LO:TX:t=P:problem=kreska pseudotaktowa	!	!LO:TX:t=P:problem=kreska pseudotaktowa	!	!	!
4GG/	-us	4B\	-(us)	4d\	-us	.	.
=39-	=39-	=39-	=39-	=39-	=39-	=39-	=39-
!	!	!	!	!LO:TX:t=P:problem=♯above	!	!	!
1AA	Pa-	1A	Pa-	4c#X\	Pa-	.	.
.	.	.	.	2d\	.	8f\	-li-
.	.	.	.	.	.	8f\	-us
!	!	!	!	!	!	!LO:TX:t=P:problem=kreska pseudotaktowa	!
.	.	.	.	.	.	2e\	Pa-
!	!	!	!	!LO:TX:t=P:problem=♯above	!	!	!
.	.	.	.	4c#X\	.	.	.
1Dl	-tris.	1Al;	-tris.	1dl;<	-tris.	1f#Xl;<	-tris.
!LO:LB:g=original	!	!	!	!	!	!LO:LB:g=original	!
=40||	=40||	=40||	=40||	=40||	=40||	=40||	=40||
*M2/1	*	*M2/1	*	*M2/1	*	*M2/1	*
*met(C|)	*	*met(C|)	*	*met(C|)	*	*met(C|)	*
!	!	!LO:TX:t=P:problem=kreska pseudotaktowa	!	!LO:TX:t=P:problem=kreska pseudotaktowa	!	!	!
!LO:TX:t=P:problem=przed metrum inicjał Q	!	!LO:TX:t=P:problem=przed metrum inicjał Q	!	!LO:TX:t=P:problem=przed metrum inicjał Q	!	!LO:TX:t=P:problem=przed metrum inicjał Q	!
1D	QVi	1A	QVi	1F#X	QVi	1dny	Qui
!LO:TX:t=P:problem=kreska pseudotaktowa	!	!	!	!	!	!	!
1GG	tol-	4B/	tol-	4G/	tol-	1d	tol-
.	.	4A/	.	4A/	.	.	.
.	.	4Gny/	.	4B\	.	.	.
!	!	!LO:TX:b:t=P:♯below:problem	!	!LO:TX:t=P:problem=kreska pseudotaktowa	!	!	!
.	.	8F#X/L	.	4cny\	.	.	.
!	!	!LO:TX:t=P:problem=kreska pseudotaktowa	!	!	!	!	!
.	.	8E/J	.	.	.	.	.
=41-	=41-	=41-	=41-	=41-	=41-	=41-	=41-
!	!	!	!	!	!	!LO:TX:t=P:problem=kreska pseudotaktowa	!
2D/	-lis	2F#X/	-lis	2A/	-lis	1d	-lis
!	!	!LO:TX:t=P:problem=kreska pseudotaktowa	!	!	!	!	!
2BB/	pec-	2D/	pec-	2d\	pec-	.	.
2.C/	-ca-	4E/	-ca-	2c\	-ca-	1r	.
.	.	4F#X/	-ta	.	.	.	.
.	.	1G/	mun-	2B\	-ta	.	.
!LO:TX:t=P:problem=kreska pseudotaktowa	!	!	!	!	!	!	!
4C/	-ta	.	.	.	.	.	.
=42-	=42-	=42-	=42-	=42-	=42-	=42-	=42-
1D	mun-	.	.	1A	mun-	2r	.
!	!	!LO:TX:t=P:problem=kreska pseudotaktowa	!	!	!	!	!
!	!	!LO:TX:a:t=P:#above:problem	!	!	!	!	!
.	.	2F#X/	.	.	.	2.d\	mi-
!LO:TX:t=P:problem=kreska pseudotaktowa	!	!	!	!LO:TX:t=P:problem=kreska pseudotaktowa	!	!	!
1GG	-di	2G/	-di	1B	-di	.	.
.	.	.	.	.	.	4G/	-ſe-
!	!	!LO:TX:t=P:problem=kreska pseudotaktowa	!	!	!	!LO:TX:t=P::problem=kreska pseudotaktowa&colon;między nutą a kropką	!
.	.	2G/	Mi-	.	.	2.g\	-re-
=43-	=43-	=43-	=43-	=43-	=43-	=43-	=43-
!	!	!	!	!LO:SIC:v:t=custos A	!	!	!
2r	.	2C/	-ſe-	1r	.	.	.
.	.	.	.	.	.	4fny\	.
2C/	mi-	4c\	-re-	.	.	4e\	.
!	!	!LO:TX:t=P:problem=kreska pseudotaktowa	!	!	!	!	!
!	!	!LO:SIC:v:t=custos A	!	!	!	!	!
.	.	4B-X\	.	.	.	8f\L	.
!	!	!	!	!	!	!LO:TX:t=P:problem=kreska pseudotaktowa	!
.	.	.	.	.	.	8g\J	.
!	!	!LO:PB:g=original	!	!LO:LB:g=original	!	!	!
2FF/	-ſe-	4A/	.	2rF	.	2.a\	.
.	.	4G/	.	.	.	.	.
4F\	-re-	4Fny/	.	2.A/	mi-	.	.
!LO:TX:t=P:problem=kreska pseudotaktowa	!	!LO:TX:t=P:problem=kreska pseudotaktowa	!	!	!	!LO:TX:t=P:problem=kreska pseudotaktowa	!
4E\	.	4G/	.	.	.	4g\	.
=44-	=44-	=44-	=44-	=44-	=44-	=44-	=44-
2.D/	.	1A	.	.	.	2.f\	.
.	.	.	.	4D/	-ſe-	.	.
!	!	!	!	!LO:TX:t=P::problem=kreska pseudotaktowa&colon;między nutą a kropką	!	!	!
.	.	.	.	2.d\	-re-	.	.
4C/	.	.	.	.	.	4e\	.
!	!	!	!	!	!	!LO:N:vis=0	!
4BB-X/	.	2B-X/	-re	.	.	1d	.
4AA/	.	.	.	4c\	.	.	.
*	*	*lig	*	*	*	*	*
1GG	.	1B-	no-	4B-X\	.	.	.
!	!	!	!	!LO:TX:t=P:problem=kreska pseudotaktowa	!	!	!
.	.	.	.	4A/	.	.	.
=45-	=45-	=45-	=45-	=45-	=45-	=45-	=45-
!	!	!	!	!	!	!LO:TX:t=P:problem=kreska pseudotaktowa	!
.	.	.	.	2G/	.	1d	-re
*	*	*col	*	*	*	*	*
!LO:TX:t=P:problem=kreska pseudotaktowa	!	!	!	!	!	!	!
2FF#X/	-re	2.A/	.	2A/	-re	.	.
1GG	no-	.	.	1B-X	no-	1d	no-
*	*	*Xlig	*	*	*	*	*
.	.	8G/L	.	.	.	.	.
.	.	8F/J	.	.	.	.	.
*	*	*Xcol	*	*	*	*	*
!	!	!LO:TX:t=P:problem=kreska pseudotaktowa	!	!	!	!	!
.	.	2G/	.	.	.	.	.
=46-	=46-	=46-	=46-	=46-	=46-	=46-	=46-
!	!	!	!	!LO:TX:t=P:problem=kreska pseudotaktowa	!	!LO:TX:t=P:problem=kreska pseudotaktowa	!
2D/	-bis	2F#X/	-bis	1A	-bis	1d	-bis
!LO:TX:t=P:problem=kreska pseudotaktowa	!	!LO:TX:t=P:problem=kreska pseudotaktowa	!	!	!	!	!
2D/	Qui	2F#/	Qui	.	.	.	.
*	*	*lig	*	*	*	*	*
1G	tol-	1Bny	tol-	2r	.	2r	.
!	!	!	!	!	!	!LO:TX:t=P:problem=kreska pseudotaktowa	!
.	.	.	.	2d\	Qui	2g\	Qui
=47-	=47-	=47-	=47-	=47-	=47-	=47-	=47-
2C/	-lis	1c	.	1e	tol-	4g\	tol-
.	.	.	.	.	.	4f\	.
!LO:TX:t=P:problem=kreska pseudotaktowa	!	!	!	!	!	!	!
!LO:SIC:v:t=custos G	!	!	!	!	!	!	!
2E\	Qui	.	.	.	.	4e\	.
.	.	.	.	.	.	8d\L	.
.	.	.	.	.	.	8c\J	.
*	*	*Xlig	*	*	*	*	*
!LO:PB:g=original	!	!LO:TX:t=P:problem=kreska pseudotaktowa	!	!	!	!LO:TX:t=P:problem=kreska pseudotaktowa	!
1G	tol-	1d	.	2d\	lis	2B/	.
!	!	!	!	!LO:TX:t=P:problem=kreska pseudotaktowa	!	!	!
.	.	.	.	2Bny\	pec-	4G/	-lis
!	!	!	!	!	!	!LO:TX:t=P:problem=kreska pseudotaktowa	!
!	!	!	!	!	!	!LO:SIC:v:t=custos B	!
.	.	.	.	.	.	4A/	pec-
!	!	!	!	!	!	!LO:LB:g=original	!
=48-	=48-	=48-	=48-	=48-	=48-	=48-	=48-
2G\	-lis	2d\	-lis	4G/	-ca-	4B/	-ca-
.	.	.	.	4A/	.	4c/	-ta
!LO:TX:t=P:problem=kreska pseudotaktowa	!	!	!	!	!	!LO:TX:t=P::problem=kreska pseudotaktowa&colon;między nutą a kropką	!
2G\	pec-	4G/	pec-	4B\	.	2.d\	mun-
!	!	!LO:TX:t=P:problem=kreska pseudotaktowa	!	!LO:TX:t=P:problem=kreska pseudotaktowa	!	!	!
.	.	4A/	.	4c\	.	.	.
2G\	-ca-	4B\	-ca-	2.d\	.	.	.
.	.	4c\	.	.	.	4e\	.
!	!	!LO:TX:t=P::problem=kreska pseudotaktowa&colon;między nutą a kropką	!	!	!	!	!
2F\	-ta	2.d\	-ta-	.	.	4f\	.
!	!	!	!	!	!	!LO:TX:t=P:problem=kreska pseudotaktowa	!
.	.	.	.	4d\	-ta	4d\	.
=49-	=49-	=49-	=49-	=49-	=49-	=49-	=49-
1E	mun-	.	.	1e	mun-	1g	.
!	!	!LO:SIC:v:s=8c#	!	!	!	!	!
.	.	8c\L	.	.	.	.	.
.	.	8B\J	.	.	.	.	.
!	!	!LO:TX:t=P:problem=♯above	!	!	!	!	!
.	.	2c#X\	-mun-	.	.	.	.
!LO:TX:t=P:problem=kreska pseudotaktowa	!	!LO:TX:t=P:problem=kreska pseudotaktowa	!	!LO:TX:t=P:problem=kreska pseudotaktowa	!	!LO:TX:t=P:problem=kreska pseudotaktowa	!
1D	-di	1d	-di	1A	-di	1f#X	-di
=50-	=50-	=50-	=50-	=50-	=50-	=50-	=50-
*M3/1	*	*M3/1	*	*M3/1	*	*M3/1	*
1.D	Suſ-	1.d	Suſ-	1.A	Suſ-	1.fny	Suſ-
2D/	-ci-	2d\	-ci-	2A/	-ci-	2f\	-ci-
!LO:TX:t=P:problem=kreska pseudotaktowa	!	!LO:TX:t=P:problem=kreska pseudotaktowa	!	!LO:TX:t=P:problem=kreska pseudotaktowa	!	!LO:TX:t=P:problem=kreska pseudotaktowa	!
1C	-pe	1e	-pe	1A	-pe	1e	-pe
=51-	=51-	=51-	=51-	=51-	=51-	=51-	=51-
0D	de-	0d	de-	0A	de-	0f#X	de-
!LO:TX:t=P:problem=kreska pseudotaktowa	!	!LO:TX:t=P:problem=kreska pseudotaktowa	!	!LO:TX:t=P:problem=kreska pseudotaktowa	!	!LO:TX:t=P:problem=kreska pseudotaktowa	!
1BBny	-pre-	1d	-pre-	1B	-pre-	1g	-pre-
=52-	=52-	=52-	=52-	=52-	=52-	=52-	=52-
1.C	-ca-	1.cny	-ca-	1.G	-ca-	1.e	-ca-
2C/	-ti-	2c\	-ti-	2G/	-ti-	2e\	-ti-
!LO:TX:t=P:problem=kreska pseudotaktowa	!	!LO:TX:t=P:problem=kreska pseudotaktowa	!	!	!	!LO:TX:t=P:problem=kreska pseudotaktowa	!
1AA	-o-	1c	-o-	2.A/	-o-	1e	-o-
.	.	.	.	4E/	-nem	.	.
=53-	=53-	=53-	=53-	=53-	=53-	=53-	=53-
*col	*	*col	*	*	*	*	*
1GG	-nem	1B	-nem	(<0e	no-	1g	-nem
!	!	!LO:TX:t=P:problem=kreska pseudotaktowa	!	!	!	!	!
!LO:TX:t=P:problem=kreska pseudotaktowa	!	!LO:SIC:v:t=custos B	!	!	!	!	!
0BB	no-	0B	no-	.	.	0f#X	no
*Xcol	*	*Xcol	*	*	*	*	*
!	!	!	!	!LO:TX:t=P:problem=♯above	!	!	!
!	!	!	!	!LO:SIC:v:t=custos e	!	!	!
.	.	.	.	1d#X)	.	.	.
!	!	!LO:LB:g=original	!	!LO:LB:g=original	!	!	!
=54-	=54-	=54-	=54-	=54-	=54-	=54-	=54-
!	!	!	!	!	!	!LO:N:acc=-	!
1E,	-ſtram	1B	-ſtr(am)	1e,	-ſtram	1gn	ſtram
1E	de-	1.B	de-	1e	de-	1g	de-
!LO:TX:t=P:problem=kreska pseudotaktowa	!	!	!	!LO:TX:t=P:problem=kreska pseudotaktowa	!	!LO:TX:t=P:problem=kreska pseudotaktowa	!
1BB	-pre-	.	.	1dny	-pre-	1f#X	-pre-
!	!	!LO:TX:t=P:problem=kreska pseudotaktowa	!	!	!	!	!
.	.	2B\	-pre-	.	.	.	.
=55-	=55-	=55-	=55-	=55-	=55-	=55-	=55-
1.C	-ca-	1.G	-ca-	1.c	-ca-	1.e	-ca-
2C/	-ti-	2G/	-ti-	2c\	-ti-	2e\	-ti-
!LO:TX:t=P:problem=kreska pseudotaktowa	!	!LO:TX:t=P:problem=kreska pseudotaktowa	!	!LO:TX:t=P:problem=kreska pseudotaktowa	!	!	!
1AA	-o-	1A	-o-	1c	-o-	2f#X\	-o-
!	!	!	!	!	!	!LO:TX:t=P:problem=kreska pseudotaktowa	!
.	.	.	.	.	.	2f#\	-nem
=56-	=56-	=56-	=56-	=56-	=56-	=56-	=56-
!	!	!	!	!LO:SIC:v:s=1d	!	!	!
1GG	-nem	1B	-nem	1c	-nem	0g	no-
*	*	*	*	*col	*	*	*
0D	no-	0A	no-	0d	no-	.	.
*	*	*	*	*Xcol	*	*	*
!	!	!	!	!	!	!LO:TX:t=P:problem=♯above	!
.	.	.	.	.	.	1f#X	.
=57-	=57-	=57-	=57-	=57-	=57-	=57-	=57-
!	!	!LO:TX:t=P:problem=kreska pseudotaktowa	!	!	!	!	!
0GG	-ſtr(am)	0.B	-ſtram	0d,	-ſtram	0g	-ſtr(am)
!LO:TX:t=P:problem=kreska pseudotaktowa	!	!	!	!	!	!LO:TX:t=P:problem=kreska pseudotaktowa	!
!LO:SIC:v:t=custos c	!	!	!	!LO:TX:t=P:problem=kreska pseudotaktowa	!	!LO:SIC:v:t=custos g	!
1G	Qui	.	.	1d	qui	1g	qui
!LO:LB:g=original	!	!	!	!	!	!LO:LB:g=original	!
=58-	=58-	=58-	=58-	=58-	=58-	=58-	=58-
!	!	!LO:N:vis=00	!	!	!	!	!
1c	ſe-	00.r	.	1e	ſe-	1g	ſe-
1B-X	-des	.	.	1d	-des	1g	-des
!LO:TX:t=P:problem=kreska pseudotaktowa	!	!	!	!LO:TX:t=P:problem=kreska pseudotaktowa	!	!LO:TX:t=P:problem=kreska pseudotaktowa	!
1A	ad	.	.	1c	ad	1f#X	ad
=59-	=59-	=59-	=59-	=59-	=59-	=59-	=59-
1.G	dex-	.	.	1.B	dex-	1.g	dex-
2A\	-te-	.	.	2c\	-te-	2g\	-te-
!	!	!	!	!	!	!LO:TX:t=P:problem=kreska pseudotaktowa	!
1B-X	-r(am)	.	.	1d	-ram	1fny	-ram
=60-	=60-	=60-	=60-	=60-	=60-	=60-	=60-
!LO:TX:t=P:problem=kreska pseudotaktowa	!	!LO:TX:t=P:problem=kreska pseudotaktowa	!	!	!	!	!
!	!	!LO:N:vis=0	!	!	!	!	!
0.A	Pa-	0.r	.	1d	Pa-	1f	Pa-
!	!	!	!	!LO:TX:t=P:problem=♯above	!	!	!
.	.	.	.	2c#X\	.	2e\	.
!	!	!	!	!LO:N:acc=#	!	!	!
!	!	!	!	!LO:TX:t=P:problem=♯above	!	!	!
.	.	.	.	2Bn\	.	2d\	.
!	!	!	!	!LO:TX:t=P:problem=kreska pseudotaktowa	!	!	!
!	!	!	!	!LO:TX:b:t=P:♯below:problem	!	!LO:TX:t=P:problem=kreska pseudotaktowa	!
.	.	.	.	1c#X	.	1e	.
=61-	=61-	=61-	=61-	=61-	=61-	=61-	=61-
1D,	-tris	0A	Mi-	1d,	-tris	1f#X	-tris
1D	mi-	.	.	1.d	mi-	1f#	mi-
!LO:TX:t=P:problem=kreska pseudotaktowa	!	!LO:TX:t=P:problem=kreska pseudotaktowa	!	!	!	!LO:TX:t=P:problem=kreska pseudotaktowa	!
1BB	-ſe-	1B	-ſe-	.	.	1g	-ſe-
.	.	.	.	2d\	-ſe-	.	.
=62-	=62-	=62-	=62-	=62-	=62-	=62-	=62-
1.C	-re-	2G/	-re-	0.cny	-re-	2e\	-re-
!	!	!LO:SIC:v:s=2F	!	!	!	!	!
.	.	2F#X/	.	.	.	2f#\	.
!	!	!	!	!	!	!LO:TX:t=P:problem=kreska pseudotaktowa	!
.	.	2E/	.	.	.	0g	-re
2D/	.	2Fny/	.	.	.	.	.
2E\	.	2G/	.	.	.	.	.
!LO:TX:t=P:problem=kreska pseudotaktowa	!	!LO:TX:t=P:problem=kreska pseudotaktowa	!	!	!	!	!
2C/	.	2A/	.	.	.	.	.
=63-	=63-	=63-	=63-	=63-	=63-	=63-	=63-
2G\	.	2.B\	.	1d	-re	1g	no-
2C/	-re	.	.	.	.	.	.
.	.	4B\	-re	.	.	.	.
*col	*	*col	*	*col	*	*	*
0D	no-	0A	no-	0d	no-	1.g	.
*Xcol	*	*Xcol	*	*Xcol	*	*	*
!	!	!	!	!	!	!LO:TX:t=P:problem=kreska pseudotaktowa	!
!	!	!	!	!	!	!LO:TX:b:t=P:♯below:problem	!
.	.	.	.	.	.	2f#X\	.
=64-	=64-	=64-	=64-	=64-	=64-	=64-	=64-
!LO:TX:t=P:problem=kreska pseudotaktowa	!	!	!	!	!	!	!
*	*	*.	*	*	*	*	*
!	!	!LO:TX:t=P:problem=kreska pseudotaktowa	!	!	!	!	!
!	!	!	!	!LO:TX:t=P:problem=kreska pseudotaktowa	!	!	!
0.GG	-bis	0.B,	-bis	0.d,	-bis	0.g,	-bis
=65-	=65-	=65-	=65-	=65-	=65-	=65-	=65-
1.GG	Quo-	1.B	Quo-	1.d	Quo-	1.g	Quo-
2GG/	-ni-	2B\	-ni-	2d\	-ni-	2g\	-ni-
!LO:TX:t=P:problem=kreska pseudotaktowa	!	!LO:TX:t=P:problem=kreska pseudotaktowa	!	!LO:SIC:v:t=custos e	!	!LO:TX:t=P:problem=kreska pseudotaktowa	!
1GG	-am	1B	-am	1d	-am	1g	-am
!	!	!	!	!LO:LB:g=original	!	!	!
=66-	=66-	=66-	=66-	=66-	=66-	=66-	=66-
1C	tu	1c	tu	1e	tu	1e	tu
1AA	ſo-	1c	ſo-	1c	So-	1a	ſo-
!LO:TX:t=P:problem=kreska pseudotaktowa	!	!LO:TX:t=P:problem=kreska pseudotaktowa	!	!LO:TX:t=P:problem=kreska pseudotaktowa	!	!LO:TX:t=P:problem=kreska pseudotaktowa	!
1D	-lus	1d	-lus	1A	-lus	1f#X	-lus
=67-	=67-	=67-	=67-	=67-	=67-	=67-	=67-
1.G	San-	2d\	San-	2B\	San-	2g\	San-
.	.	2c\	.	2c\	.	2a\	.
.	.	2B\	.	1.d	.	2b\	.
2F\	.	4c\	.	.	.	2a\	.
.	.	4d\	.	.	.	.	.
!	!	!LO:TX:t=P:problem=kreska pseudotaktowa	!	!	!	!LO:TX:t=P:problem=kreska pseudotaktowa	!
!LO:TX:t=P:problem=kreska pseudotaktowa	!	!LO:SIC:v:t=custos A	!	!	!	!LO:SIC:v:t=custos f	!
1E	.	1e	.	.	.	1g	.
!	!	!	!	!LO:TX:t=P:problem=♯above	!	!	!
.	.	.	.	2c#X\	.	.	.
!	!	!LO:LB:g=original	!	!	!	!LO:PB:g=original	!
=68-	=68-	=68-	=68-	=68-	=68-	=68-	=68-
!LO:SIC:v:t=custos D	!	!LO:TX:t=P:problem=kreska pseudotaktowa	!	!LO:TX:t=P:problem=kreska pseudotaktowa	!	!	!
0.D	-ctus	0.A,	-ctus	0.d	-ctus	0.f#X	-ctus
!LO:LB:g=original	!	!	!	!	!	!	!
=69-	=69-	=69-	=69-	=69-	=69-	=69-	=69-
1D	Tu	1A	Tu	1d	Tu	1f#X	Tu
!	!	!	!	!	!	!LO:TX:t=P:problem=♯above	!
1BB	ſo-	1B	ſo-	1d	So-	1g#X	ſo-
!LO:TX:t=P:problem=kreska pseudotaktowa	!	!LO:TX:t=P:problem=kreska pseudotaktowa	!	!	!	!LO:TX:t=P:problem=kreska pseudotaktowa	!
1AA	-lus	1c	-lus	1e	-lus	1a	-lus
=70-	=70-	=70-	=70-	=70-	=70-	=70-	=70-
1.E	Do-	1.B	Do-	1.e	Do-	1.g#X	Do-
2E\	-mi-	2B\	-mi-	2e\	-mi-	2g#\	-mi-
!	!	!LO:TX:t=P:problem=kreska pseudotaktowa	!	!LO:TX:t=P:problem=kreska pseudotaktowa	!	!	!
2E\	-nus	1B,	-nus,	1e	-nus,	2g#\	-nus,
!LO:TX:t=P:problem=kreska pseudotaktowa	!	!	!	!	!	!LO:TX:t=P:problem=kreska pseudotaktowa	!
2E\	Tu	.	.	.	.	2g#\	Tu
=71-	=71-	=71-	=71-	=71-	=71-	=71-	=71-
!	!	!LO:SIC:v:s=1c	!	!	!	!	!
1.A	ſo-	1d	Tu	1e	Tu	2a\	ſo-
.	.	.	.	.	.	4gny\	.
.	.	.	.	.	.	4fny\	.
*	*	*	*	*col	*	*	*
.	.	2c\	ſo-	0cny	ſo-	2e\	.
*	*	*	*	*Xcol	*	*	*
2G\	.	2B\	.	.	.	4f\	.
.	.	.	.	.	.	4g\	.
*	*	*col	*	*	*	*	*
2F\	.	0A	-lus	.	.	2a\	.
!LO:TX:t=P:problem=kreska pseudotaktowa	!	!	!	!	!	!LO:TX:t=P:problem=kreska pseudotaktowa	!
2E\	.	.	.	.	.	2g\	.
=72-	=72-	=72-	=72-	=72-	=72-	=72-	=72-
1D	-lus	.	.	0d	-lus	1f	.
*	*	*Xcol	*	*	*	*	*
1D	Al-	1A	Al-	.	.	1f	-lus
!	!	!LO:TX:t=P:problem=kreska pseudotaktowa	!	!LO:TX:t=P:problem=kreska pseudotaktowa	!	!LO:TX:t=P:problem=kreska pseudotaktowa	!
1E	.	1e	.	1c	Al-	1g	Al-
=73-	=73-	=73-	=73-	=73-	=73-	=73-	=73-
0G	-tiſ-	0d	-tiſ-	1c	-tiſ-	0g	-tiſ-
.	.	.	.	2B\	.	.	.
.	.	.	.	2A/	.	.	.
!LO:TX:t=P:problem=kreska pseudotaktowa	!	!LO:TX:t=P:problem=kreska pseudotaktowa	!	!	!	!LO:TX:t=P:problem=kreska pseudotaktowa	!
1GG	-si-	1d	-si-	2.B\	.	1g	-si-
!	!	!	!	!LO:TX:t=P:problem=kreska pseudotaktowa	!	!	!
.	.	.	.	4B\	-si-	.	.
=74-	=74-	=74-	=74-	=74-	=74-	=74-	=74-
*	*	*col	*	*	*	*	*
1C	-mus	1e,	-mus	1c	-mus	1g	-mus
*	*	*	*	*col	*	*	*
!	!	!	!	!	!	!LO:TX:t=P:problem=kreska pseudotaktowa	!
2C/	Je-	0c	Je-	0e	Je-	0g	Je-
2D/	.	.	.	.	.	.	.
2E\	.	.	.	.	.	.	.
!LO:TX:t=P:problem=kreska pseudotaktowa	!	!	!	!	!	!	!
2F\	.	.	.	.	.	.	.
*	*	*Xcol	*	*Xcol	*	*	*
=75-	=75-	=75-	=75-	=75-	=75-	=75-	=75-
*	*	*	*	*	*	*col	*
1G	.	0.B	-su	0.d	-su	1g	-su
!	!	!	!	!	!	!LO:TX:t=P:problem=kreska pseudotaktowa	!
2GG/	.	.	.	.	.	0g	Chri-
2AA/	.	.	.	.	.	.	.
2BB/	.	.	.	.	.	.	.
2C/	.	.	.	.	.	.	.
*	*	*	*	*	*	*Xcol	*
=76-	=76-	=76-	=76-	=76-	=76-	=76-	=76-
*M2/1	*	*M2/1	*	*M2/1	*	*M2/1	*
*met(C|)	*	*met(C|)	*	*met(C|)	*	*met(C|)	*
!	!	!	!	!	!	!LO:TX:t=P:problem=♯above	!
2D/	.	8A/L	Je-	2d\	Je-	4f#X\	-ſte
.	.	8G/	.	.	.	.	.
.	.	8A/	.	.	.	8f#\L	Je-
.	.	8B/J	.	.	.	8g\J	.
!	!	!LO:TX:t=P::problem=kreska pseudotaktowa&colon;między nutą a kropką	!	!	!	!	!
2C/	-su	2.c\	-ſu-	2e\	-su	4a\	.
!	!	!	!	!	!	!LO:TX:t=P:problem=kreska pseudotaktowa	!
.	.	.	.	.	.	4g\	-su
!LO:TX:t=P:problem=kreska pseudotaktowa	!	!	!	!	!	!LO:TX:t=P:problem=♯above	!
1D	Chri-	.	.	1d	Chri-	4f#X\	Chri-
.	.	4B\	.	.	.	2g\	.
!	!	!LO:TX:t=P:problem=kreska pseudotaktowa	!	!	!	!	!
.	.	2A/	-Chri-	.	.	.	.
!	!	!	!	!	!	!LO:TX:t=P:problem=kreska pseudotaktowa	!
!	!	!	!	!	!	!LO:SIC:v:t=custos g	!
.	.	.	.	.	.	4f#\	.
!	!	!	!	!	!	!LO:LB:g=original	!
=77-	=77-	=77-	=77-	=77-	=77-	=77-	=77-
!LO:SIC:v:t=custos G	!	!	!	!LO:SIC:v:t=custos G	!	!	!
2GG;/	-ſte	2B\	-ſte	1d	-ſte	2.g,\	-ſte
!LO:LB:g=original	!	!	!	!	!	!	!
4r	.	4r	.	.	.	.	.
!LO:TX:t=P:problem=kreska pseudotaktowa	!	!LO:TX:t=P:problem=kreska pseudotaktowa	!	!	!	!LO:TX:t=P:problem=kreska pseudotaktowa	!
4G\	Cum	4B\	Cum	.	.	4g\	Cum
!	!	!	!	!LO:PB:g=original	!	!	!
!	!	!	!	!LO:TX:t=P:problem=kreska pseudotaktowa	!	!	!
4c\	San-	4e\	San-	1r	.	4g\	San-
!	!	!	!	!	!	!LO:TX:t=P:problem=♯above	!
4A\	.	4c\	-cto	.	.	4f#X\	-cto
!	!	!	!	!	!	!LO:TX:t=P::problem=kreska pseudotaktowa&colon;między nutą a kropką	!
4.G\	.	8B\L	Spi-	.	.	2.g\	Spi-
.	.	8c\J	.	.	.	.	.
.	.	2d\	.	.	.	.	.
8F\	-cto	.	.	.	.	.	.
=78-	=78-	=78-	=78-	=78-	=78-	=78-	=78-
4.E\	Spi-	.	.	4r	.	.	.
!	!	!LO:TX:t=P:problem=♯above	!	!	!	!	!
.	.	4c#X\	-ri-	4G/	in	4g\	-ri-
8E\	-ri-	.	.	.	.	.	.
!	!	!LO:TX:t=P:problem=kreska pseudotaktowa	!	!	!	!	!
!	!	!LO:SIC:v:t=custos A	!	!	!	!LO:SIC:v:s=4f#	!
4D\	-tu	2d\	-tu	4A/	glo-	4f#X\	-tu
!	!	!	!	!	!	!LO:TX:t=P:problem=kreska pseudotaktowa	!
!LO:TX:t=P:problem=kreska pseudotaktowa	!	!	!	!	!	!LO:TX:t=P:problem=♯above	!
4D\	in	.	.	8A/	-ri-	4f#X\	in
!	!	!	!	!LO:TX:t=P:problem=kreska pseudotaktowa	!	!	!
!	!	!	!	!LO:TX:a:t=b	!	!	!
.	.	.	.	8B/	-a	.	.
!	!	!LO:LB:g=original	!	!	!	!	!
!	!	!LO:TX:t=P:problem=kreska pseudotaktowa	!	!	!	!	!
4.E\	glo-	1r	.	4.c\	De-	4.e\	glo-
16E\	-ri-	.	.	8B\	-i	8e\	-ri-
16E\	-a	.	.	.	.	.	.
!	!	!	!	!	!	!LO:TX:t=P:problem=kreska pseudotaktowa	!
4.F#X\	De-	.	.	8A\L	Pa-	2d\	-a
.	.	.	.	16B\L	.	.	.
.	.	.	.	16c\JJ	.	.	.
.	.	.	.	8d\L	.	.	.
!LO:TX:t=P:problem=kreska pseudotaktowa	!	!	!	!LO:TX:t=P:problem=kreska pseudotaktowa	!	!	!
8F#\	-i	.	.	8c\J	.	.	.
=79-	=79-	=79-	=79-	=79-	=79-	=79-	=79-
4.G\	Pa-	2r	.	8B\L	.	8d\L	De-
.	.	.	.	8c\J	.	16e\L	.
.	.	.	.	.	.	16fny\JJ	.
.	.	.	.	2d\	.	8g\L	-i
8G\	-tris	.	.	.	.	8f\J	.
!LO:TX:t=P:problem=kreska pseudotaktowa	!	!	!	!	!	!LO:TX:t=P:problem=kreska pseudotaktowa	!
2A\	A-	4r	.	.	.	2e\	Pa-
!	!	!	!	!LO:TX:t=P:problem=kreska pseudotaktowa	!	!	!
!	!	!LO:TX:t=P:problem=kreska pseudotaktowa	!	!LO:TX:t=P:problem=♯above	!	!	!
.	.	4A/	in	4c#X\	.	.	.
4D/	-men	4.F#X/	glo-	2d\	-tris	4d\	-tris
4D/	in	.	.	.	.	2d\	De-
.	.	16G/	-ri-	.	.	.	.
.	.	16A/	-a	.	.	.	.
!	!	!LO:TX:t=P:problem=kreska pseudotaktowa	!	!LO:TX:t=P:problem=kreska pseudotaktowa	!	!	!
4.E\	glo-	2G/	De-	2r	.	.	.
!	!	!	!	!	!	!LO:TX:t=P:problem=kreska pseudotaktowa	!
!	!	!	!	!	!	!LO:TX:b:t=P:♯below:problem	!
.	.	.	.	.	.	4c#X/	.
16E\	-ri-	.	.	.	.	.	.
!LO:TX:t=P:problem=kreska pseudotaktowa	!	!	!	!	!	!	!
16E\	-a	.	.	.	.	.	.
=80-	=80-	=80-	=80-	=80-	=80-	=80-	=80-
2F#X\	De-	4A/	-i	0r	.	4d\	-i
*	*	*	*ij	*	*	*	*
.	.	4D/	in	.	.	8d\L	Pa-
.	.	.	.	.	.	8cny\J	.
!LO:TX:t=P:problem=kreska pseudotaktowa	!	!	!	!	!	!	!
2G\	-i	4.E/	glo-	.	.	8B\L	.
.	.	.	.	.	.	16c\L	.
.	.	.	.	.	.	16d\JJ	.
.	.	.	.	.	.	2e\	.
.	.	16E/	-ri-	.	.	.	.
!	!	!LO:TX:t=P:problem=kreska pseudotaktowa	!	!	!	!	!
.	.	16E/	-a	.	.	.	.
2A\	Pa-	2F#X/	De-	.	.	.	.
.	.	.	.	.	.	4d\	-tris
!LO:TX:t=P:problem=kreska pseudotaktowa	!	!	!	!	!	!	!
2Bny\	-tris	4G,/	-i	.	.	8d\L	De-
*	*	*	*Xij	*	*	*	*
.	.	.	.	.	.	16e\L	.
.	.	.	.	.	.	16f\JJ	.
!	!	!LO:TX:t=P:problem=kreska pseudotaktowa	!	!	!	!	!
.	.	4G/	in	.	.	8g\L	.
!	!	!	!	!	!	!LO:TX:t=P:problem=kreska pseudotaktowa	!
.	.	.	.	.	.	8f\J	.
=81-	=81-	=81-	=81-	=81-	=81-	=81-	=81-
4r	.	4.cny\	glo-	1r	.	8e\L	.
.	.	.	.	.	.	16f\L	.
.	.	.	.	.	.	16g\JJ	.
4AA/	in	.	.	.	.	2a\	.
.	.	16c\	-ri-	.	.	.	.
.	.	16c\	-a	.	.	.	.
4.BB/	glo-	4.d\	De-	.	.	.	.
!	!	!	!	!	!	!LO:TX:t=P:problem=kreska pseudotaktowa	!
!	!	!	!	!	!	!LO:TX:t=P:problem=♯above	!
.	.	.	.	.	.	4g#X\	-i
!	!	!LO:TX:t=P:problem=kreska pseudotaktowa	!	!	!	!	!
16BB/	-ri-	8d\	-i	.	.	.	.
!LO:TX:t=P:problem=kreska pseudotaktowa	!	!	!	!	!	!	!
16BB/	-a	.	.	.	.	.	.
!LO:SIC:v:t=custos D	!	!	!	!	!	!	!
2C#X/	De-	2e\	Pa-	2r	.	4.a\	Pa-
.	.	.	.	.	.	8g#\	.
!LO:LB:g=original	!	!	!	!LO:TX:t=P:problem=kreska pseudotaktowa	!	!LO:TX:t=P:problem=♯above	!
4D/	-i	4A/	-tris	2A/	in	8f#X\L	.
.	.	.	.	.	.	8g#\J	.
!	!	!LO:TX:t=P:problem=kreska pseudotaktowa	!	!	!	!	!
8D/L	De-	4A/	in	.	.	2a\	.
!LO:TX:t=P:problem=kreska pseudotaktowa	!	!	!	!	!	!	!
8C#/J	.	.	.	.	.	.	.
=82-	=82-	=82-	=82-	=82-	=82-	=82-	=82-
2BB/	-[[i]]-	4.d\	glo-	4.B\	glo-	.	.
!	!	!	!	!	!	!LO:TX:t=P:problem=kreska pseudotaktowa	!
!	!	!	!	!	!	!LO:SIC:v:t=custos a	!
!	!	!	!	!	!	!LO:TX:t=P:problem=♯above	!
.	.	.	.	.	.	4g#X\	-tris
.	.	8d\	-ri-	16B\	-ri-	.	.
.	.	.	.	16B\	-a	.	.
!	!	!	!	!	!	!LO:LB:g=original	!
!LO:TX:t=P:problem=kreska pseudotaktowa	!	!LO:TX:t=P:problem=kreska pseudotaktowa	!	!	!	!	!
2AA/	-i	2e\	-a	8cny\L	De-	4.a\	De-
.	.	.	.	8d\J	.	.	.
.	.	.	.	2e\	.	.	.
!	!	!	!	!	!	!LO:TX:t=P:problem=kreska pseudotaktowa	!
.	.	.	.	.	.	8gny\	-i
!	!	!	!	!	!	!LO:TX:t=P:problem=♯above	!
2BB/	Pa-	4r	.	.	.	2f#X\	Pa-
!	!	!	!	!LO:TX:t=P:problem=♯above	!	!	!
.	.	4B\	in	4d#X\	.	.	.
!	!	!	!	!LO:TX:t=P:problem=kreska pseudotaktowa	!	!	!
4E\	-tris	4.G/	glo-	2e\	-i	4e\	-tris
!LO:TX:t=P:problem=kreska pseudotaktowa	!	!	!	!	!	!LO:TX:t=P:problem=kreska pseudotaktowa	!
4E\	in	.	.	.	.	4g\	in
.	.	16A/	-ri-	.	.	.	.
!	!	!LO:TX:t=P:problem=kreska pseudotaktowa	!	!	!	!	!
.	.	16B\	-a	.	.	.	.
=83-	=83-	=83-	=83-	=83-	=83-	=83-	=83-
4.Cny/	glo-	2c\	De-	4r	.	4.e\	glo-
.	.	.	.	4e\	in	.	.
16D/	-ri-	.	.	.	.	16fny\	-ri-
16E/	-a	.	.	.	.	16g\	-a
!LO:TX:t=P:problem=kreska pseudotaktowa	!	!LO:TX:t=P:problem=kreska pseudotaktowa	!	!	!	!	!
2Fny\	De-	2A/	-i	4.c\	glo-	4.a\	De-
!	!	!	!	!	!	!LO:TX:t=P:problem=kreska pseudotaktowa	!
.	.	.	.	16dny\	-ri-	8g\	.
!	!	!	!	!LO:TX:t=P:problem=kreska pseudotaktowa	!	!	!
.	.	.	.	16e\	-a	.	.
4D,/	-i	2A/	in	2f\	De-	8f\L	.
.	.	.	.	.	.	8g\	.
4D/	in	.	.	.	.	8a\	.
.	.	.	.	.	.	8b\J	.
!	!	!	!	!LO:TX:t=P:problem=kreska pseudotaktowa	!	!LO:TX:t=P:problem=kreska pseudotaktowa	!
4.G\	glo-	4.B\	glo-	2d\	-i	2g\	.
16G\	-ri-	16B\	-ri-	.	.	.	.
!	!	!LO:TX:t=P:problem=kreska pseudotaktowa	!	!	!	!	!
!	!	!LO:SIC:v:t=custos c	!	!	!	!	!
16G\	-a	16B\	-a	.	.	.	.
!	!	!LO:LB:g=original	!	!	!	!	!
=84-	=84-	=84-	=84-	=84-	=84-	=84-	=84-
4.E\	De-	2.c\	De-	2e\	Pa-	4g\	-i
.	.	.	.	.	.	2g\	De-
8D/	.	.	.	.	.	.	.
4C/	.	.	.	4e\	-tris	.	.
!LO:TX:t=P:problem=kreska pseudotaktowa	!	!LO:TX:t=P:problem=kreska pseudotaktowa	!	!	!	!LO:TX:t=P:problem=kreska pseudotaktowa	!
4BB/	-i	4d\	-i	2d\	Pa-	4g\	-i
1C	Pa-	1e	Pa-	.	.	2g\	Pa-
.	.	.	.	8c\L	.	.	.
!	!	!	!	!LO:SIC:v:t=custos c	!	!	!
.	.	.	.	8B\J	.	.	.
!	!	!	!	!LO:LB:g=original	!	!	!
!	!	!	!	!LO:TX:t=P:problem=kreska pseudotaktowa	!	!	!
.	.	.	.	2c\	.	2g\	-tris
=85-	=85-	=85-	=85-	=85-	=85-	=85-	=85-
4GG,/	-tris	2d\	-tris	4B\	-tris	2g\	A-
4G\	A-	.	.	4B\	A-	.	.
!	!	!LO:TX:t=P:problem=kreska pseudotaktowa	!	!	!	!	!
4A\	.	2r	.	4c\	.	4e\	.
!LO:TX:t=P:problem=kreska pseudotaktowa	!	!	!	!LO:TX:t=P:problem=kreska pseudotaktowa	!	!LO:TX:t=P:problem=kreska pseudotaktowa	!
4F\	.	.	.	4A/	.	4a\	.
4E\	.	2rd	.	4B\	.	2g\	-men
8C\L	.	.	.	2c\	.	.	.
8D\J	.	.	.	.	.	.	.
!	!	!LO:TX:t=P:problem=kreska pseudotaktowa	!	!	!	!LO:TX:t=P::problem=kreska pseudotaktowa&colon;między nutą a kropką	!
8E\L	.	2d\	A-	.	.	2.g\	A-
8F\J	.	.	.	.	.	.	.
!LO:TX:t=P:problem=kreska pseudotaktowa	!	!	!	!	!	!	!
4G\	.	.	.	4B\	.	.	.
=86-	=86-	=86-	=86-	=86-	=86-	=86-	=86-
4C/	.	4e\	.	2c\	.	.	.
!LO:SIC:v:t=custos GG	!	!	!	!	!	!LO:TX:t=P:problem=♯above	!
4AA/	.	4c\	.	.	.	4f#X\	.
!LO:LB:g=original	!	!	!	!LO:TX:t=P:problem=kreska pseudotaktowa	!	!LO:TX:t=P::problem=kreska pseudotaktowa&colon;między nutą a kropką	!
4GG/	.	4B\	.	2d\	-men	2.g\	.
2G\	.	8G/L	.	.	.	.	.
!	!	!LO:TX:t=P:problem=kreska pseudotaktowa	!	!	!	!	!
.	.	8A/J	.	.	.	.	.
.	.	8B\L	.	4r	.	.	.
.	.	8c\J	.	.	.	.	.
4F#X\	.	2d\	.	4A/	A-	2d\	.
!LO:TX:t=P:problem=kreska pseudotaktowa	!	!	!	!	!	!	!
2E\	-men	.	.	4.B/	.	.	.
!	!	!LO:TX:t=P:problem=kreska pseudotaktowa	!	!	!	!	!
!	!	!LO:TX:t=P:problem=♯above	!	!	!	!LO:TX:t=P:problem=kreska pseudotaktowa	!
.	.	4c#X\	-men	.	.	4e\	.
!	!	!	!	!LO:TX:t=P:problem=kreska pseudotaktowa	!	!	!
.	.	.	.	8G/	.	.	.
=87-	=87-	=87-	=87-	=87-	=87-	=87-	=87-
!	!	!	!	!	!	!LO:TX:t=P:problem=kreska pseudotaktowa	!
2.D/	A-	4.d\	A-	4F#X/	.	1A	-men
.	.	.	.	8D/L	.	.	.
.	.	8cny\	.	8E/J	.	.	.
.	.	8A\L	.	8F#/L	.	.	.
.	.	8B\	.	8G/J	.	.	.
4C/	.	8c\	.	2A/	.	.	.
!	!	!LO:TX:t=P:problem=kreska pseudotaktowa	!	!	!	!	!
.	.	8A\J	.	.	.	.	.
2BB/	.	2d\	.	.	.	1rc	.
.	.	.	.	4G#X/	.	.	.
!	!	!LO:TX:t=P:problem=kreska pseudotaktowa	!	!	!	!	!
8AA/L	.	2c\	.	4A/	-men	.	.
8BB/	.	.	.	.	.	.	.
!	!	!	!	!LO:TX:t=P:problem=kreska pseudotaktowa	!	!	!
8C/	.	.	.	4c\	A-	.	.
!LO:TX:t=P:problem=kreska pseudotaktowa	!	!	!	!	!	!	!
8AA/J	.	.	.	.	.	.	.
=88-	=88-	=88-	=88-	=88-	=88-	=88-	=88-
!	!	!	!	!LO:TX:t=P:problem=brak 3 ćwierćnut	!	!	!
4E\	.	4B\	-men	4ryy	.	4r	.
4C/	.	2e\	A-	4ryy	.	4g\	A-
4AA/	.	.	.	4ryy	.	4a\	.
!LO:TX:t=P:problem=kreska pseudotaktowa	!	!LO:TX:t=P:problem=kreska pseudotaktowa	!	!	!	!LO:TX:t=P:problem=kreska pseudotaktowa	!
4BB/	.	4d\	.	4.f\	.	4g\	.
2.C/	.	2.c\	.	.	.	4g\	-men
.	.	.	.	16e\LL	.	.	.
.	.	.	.	16d\JJ	.	.	.
!	!	!	!	!LO:TX:t=P:problem=kreska pseudotaktowa	!	!	!
.	.	.	.	2e\	.	8c\L	A-
!	!	!	!	!	!	!LO:SIC:v:t=custos e	!
.	.	.	.	.	.	8d\J	.
!	!	!	!	!	!	!LO:LB:g=original	!
.	.	.	.	.	.	8e\L	.
.	.	.	.	.	.	8fny\J	.
!	!	!LO:TX:t=P:problem=kreska pseudotaktowa	!	!	!	!	!
4E\	.	4B\	.	4e\	-men	2g\	.
=89-	=89-	=89-	=89-	=89-	=89-	=89-	=89-
4C/	.	2A/	.	4e\	A-	.	.
!	!	!	!	!	!	!LO:TX:t=P:problem=♯above	!
4D/	.	.	.	2d\	.	4f#X\	.
!LO:TX:t=P:problem=kreska pseudotaktowa	!	!	!	!	!	!	!
2GG/	-men	4B/	.	.	.	4.g\	-men
!	!	!LO:TX:t=P:problem=kreska pseudotaktowa	!	!	!	!	!
.	.	4G/	-men	4B\	.	.	.
*	*	*	*	*	*	*	*ij
!	!	!	!	!	!	!LO:TX:t=P:problem=kreska pseudotaktowa	!
.	.	.	.	.	.	8d\	A-
2r	.	4c\	A-	8e\L	.	4e\	.
.	.	.	.	8d\	.	.	.
!	!	!	!	!	!	!LO:TX:t=P:problem=♯above	!
.	.	4A/	.	8c\	.	4f#X\	.
.	.	.	.	16d\L	.	.	.
!	!	!	!	!LO:TX:t=P:problem=kreska pseudotaktowa	!	!	!
.	.	.	.	16c\JJ	.	.	.
4r	.	4G/	.	4.B\	.	2.g\	.
!LO:TX:t=P:problem=kreska pseudotaktowa	!	!LO:TX:t=P:problem=kreska pseudotaktowa	!	!	!	!	!
4G\	A-	4B\	.	.	.	.	.
.	.	.	.	8d\	.	.	.
=90-	=90-	=90-	=90-	=90-	=90-	=90-	=90-
4c\	.	2c\	.	4e\	.	.	.
!	!	!	!	!LO:TX:t=P:problem=kreska pseudotaktowa	!	!LO:TX:t=P:problem=♯above	!
4A\	.	.	.	4c\	.	4f#X\	.
!	!	!LO:TX:t=P:problem=kreska pseudotaktowa	!	!	!	!	!
2.G\	.	2d\	-men	4B\	.	4g\	-men
*	*	*	*	*	*	*	*Xij
.	.	.	.	8Gny\L	.	2g\	A-
!	!	!	!	!LO:SIC:v:t=custos B	!	!	!
.	.	.	.	8A\J	.	.	.
!	!	!	!	!LO:LB:g=original	!	!	!
.	.	1re	.	8B\L	.	.	.
.	.	.	.	8c\J	.	.	.
8D\L	.	.	.	2d\	.	2fny\	.
8E\J	.	.	.	.	.	.	.
8Fny\L	.	.	.	.	.	.	.
8G\	.	.	.	.	.	.	.
!	!	!	!	!	!	!LO:TX:t=P:problem=kreska pseudotaktowa	!
8A\	.	.	.	2c\	.	4e\	.
!LO:TX:t=P:problem=kreska pseudotaktowa	!	!	!	!	!	!	!
8G\J	.	.	.	.	.	.	.
=91-	=91-	=91-	=91-	=91-	=91-	=91-	=91-
4F\	.	2d\	A-	.	.	2d\	.
4G\	.	.	.	8B\L	.	.	.
!	!	!	!	!LO:TX:t=P:problem=kreska pseudotaktowa	!	!	!
.	.	.	.	8A\J	.	.	.
4.C/	.	4e\	.	[2G/	.	8c\L	.
.	.	.	.	.	.	8d\	.
!	!	!LO:TX:t=P:problem=kreska pseudotaktowa	!	!	!	!	!
.	.	4c\	.	.	.	8e\	.
!LO:TX:t=P:problem=kreska pseudotaktowa	!	!	!	!	!	!LO:TX:t=P:problem=kreska pseudotaktowa	!
8D/	.	.	.	.	.	8f\J	.
2.E/	.	4B\	.	8G/L]	.	1g	.
.	.	.	.	8A/J	.	.	.
.	.	8G/L	.	8B/L	.	.	.
!	!	!LO:SIC:v:t=custos B	!	!	!	!	!
.	.	8A/J	.	8A/	.	.	.
!	!	!LO:LB:g=original	!	!	!	!	!
.	.	8B\L	.	8G/	.	.	.
.	.	8c\J	.	8A/J	.	.	.
4BB/	-men	2d\	.	2B\	.	.	.
=92-	=92-	=92-	=92-	=92-	=92-	=92-	=92-
*lig	*	*	*	*	*	*	*
1C	A-	.	.	.	.	1e	-men
.	.	8c\L	.	8A/L	.	.	.
.	.	8B\J	.	8G/J	.	.	.
!	!	!LO:TX:t=P:problem=kreska pseudotaktowa	!	!	!	!	!
.	.	2.c\	.	4A/	.	.	.
.	.	.	.	4G/	.	.	.
1D	.	.	.	4F#X/	.	1d	A-
.	.	4B\	.	2G/	.	.	.
.	.	2A/	.	.	.	.	.
.	.	.	.	4F#/	.	.	.
*Xlig	*	*	*	*	*	*	*
=93-	=93-	=93-	=93-	=93-	=93-	=93-	=93-
!LO:TX:b:t=A M D G.	!	!LO:TX:b:t=A M D G	!	!	!	!	!
0GGl	-men	0Bl;	-men.	0Gl	-men	0dl	-men.
==	==	==	==	==	==	==	==
*-	*-	*-	*-	*-	*-	*-	*-
!!!system-decoration: [s1,s2,s3,s4]
!!!RDF**kern: < = below
!!!RDF**kern: l = terminal long
!!!AIN: 1 alto 1 bass 1 soprn 1 tenor
!!!ENC: Marta Lawrence
!!!END: 2021-03-13
!!!ENC: Andrzej Borzym
!!!END: 2021-02-25
